icons/glyphs/glyph-cpp.svg

<?xml version="1.0" encoding="UTF-8" standalone="no"?><svg height="16" viewBox="0 0 4.2333333 4.2333333" width="16" xmlns="http://www.w3.org/2000/svg"><sodipodi:namedview/><metadata><rdf:RDF><cc:Work><dc:format>image/svg+xml</dc:format><dc:type/><dc:title/></cc:Work></rdf:RDF></metadata><path d="m1.0011749.84754908c-.61873352 0-1.00117489.40646042-1.00117489 1.12712392v.2952182c0 .7170873.37726027 1.115893.99957047 1.115893.62230992 0 .94261262-.413506.94261262-.8158614v-.0360994h-.4187607c0 .2592964-.1746425.4813341-.5126208.4813341-.34691992 0-.57439202-.2326586-.57439202-.7476724v-.2912077c0-.5096506.229192-.7581011.56717202-.7581011.3397669 0 .5198408.2535097.5198408.5110163h.4187607v-.033693c0-.441697-.338369-.84795001-.9410082-.84795052zm1.3669888.75328782v.4412229h-.4259806v.2117869h.4259806v.4604762h.2149958v-.4604762h.4267829v-.2117869h-.4267829v-.4412229zm1.2233909 0v .4412229h-.425981v.2117869h.425981v.4604762h.2149957v-.4604762h.426783v-.2117869h-.426783v-.4412229z" fill="#d0d0d0" stroke-width=".686687"/></svg>

<?xml version="1.0" encoding="UTF-8" standalone="no"?>
<!-- Created with Inkscape (http://www.inkscape.org/) -->

<svg
     xmlns:dc="http://purl.org/dc/elements/1.1/"
     xmlns:cc="http://creativecommons.org/ns#"
     xmlns:rdf="http://www.w3.org/1999/02/22-rdf-syntax-ns#"
     xmlns:svg="http://www.w3.org/2000/svg"
     xmlns="http://www.w3.org/2000/svg"
     xmlns:sodipodi="http://sodipodi.sourceforge.net/DTD/sodipodi-0.dtd"
     xmlns:inkscape="http://www.inkscape.org/namespaces/inkscape"
     width="16"
     height="16"
     viewBox="0 0 4.2333333 4.2333333"
     version="1.1"
     id="svg8"
     inkscape:version="0.92+devel (fa9b7f7a5b, 2017-07-19, custom)"
     sodipodi:docname="glyph-cpp.svg">
    <defs
         id="defs2" />
    <sodipodi:namedview
         id="base"
         pagecolor="#002466"
         bordercolor="#ffffff"
         borderopacity="0.38039216"
         inkscape:pageopacity="1"
         inkscape:pageshadow="2"
         inkscape:zoom="25.90625"
         inkscape:cx="-1.5536791"
         inkscape:cy="7.0479577"
         inkscape:document-units="px"
         inkscape:current-layer="svg8"
         inkscape:document-rotation="0"
         showgrid="false"
         inkscape:showpageshadow="false"
         borderlayer="true"
         inkscape:window-width="1920"
         inkscape:window-height="1051"
         inkscape:window-x="0"
         inkscape:window-y="0"
         inkscape:window-maximized="1"
         units="px" />
    <metadata
         id="metadata5">
        <rdf:RDF>
            <cc:Work
                 rdf:about="">
                <dc:format>image/svg+xml</dc:format>
                <dc:type
                     rdf:resource="http://purl.org/dc/dcmitype/StillImage" />
                <dc:title></dc:title>
            </cc:Work>
        </rdf:RDF>
    </metadata>
    <path
         inkscape:connector-curvature="0"
         id="path821"
         d="M 1.0011749,0.84754908 C 0.38244138,0.84754908 1.5e-8,1.2540095 1.5e-8,1.974673 v 0.2952182 c 0,0.7170873 0.377260265,1.115893 0.999570465,1.115893 0.62230992,0 0.94261262,-0.413506 0.94261262,-0.8158614 V 2.5338234 H 1.5234224 c 0,0.2592964 -0.1746425,0.4813341 -0.5126208,0.4813341 -0.34691992,0 -0.57439202,-0.2326586 -0.57439202,-0.7476724 V 1.9762774 c 0,-0.5096506 0.229192,-0.7581011 0.56717202,-0.7581011 0.3397669,0 0.5198408,0.2535097 0.5198408,0.5110163 h 0.4187607 v -0.033693 c 0,-0.441697 -0.338369,-0.84795001 -0.9410082,-0.84795052 z M 2.3681637,1.6008369 V 2.0420598 H 1.9421831 V 2.2538467 H 2.3681637 V 2.7143229 H 2.5831595 V 2.2538467 H 3.0099424 V 2.0420598 H 2.5831595 V 1.6008369 Z m 1.2233909,0 v 0.4412229 h -0.425981 v 0.2117869 h 0.425981 V 2.7143229 H 3.8065503 V 2.2538467 h 0.426783 V 2.0420598 H 3.8065503 V 1.6008369 Z"
         style="font-style:normal;font-variant:normal;font-weight:600;font-stretch:normal;font-size:medium;font-family:'San Francisco Display';-inkscape-font-specification:'San Francisco Display Semi-Bold';font-variant-ligatures:normal;font-variant-caps:normal;font-variant-numeric:normal;font-feature-settings:normal;text-align:start;writing-mode:lr-tb;text-anchor:start;fill:#d0d0d0;stroke-width:0.68668687"
         inkscape:label="#" />
</svg>
